!!!OTL: Et wassen twe KÅnigeskinner, de hadden enanner so lef;
!!!SCT: T0004A
!!!YEM: Copyright 1995, estate of Helmut Schaffrath.
**kern
*ICvox
*Ivox
*M4/4
*k[b-]
*F:
{4c
=1
4a
8a
8a
4a
8g
8g
=2
4.g
8f
4f}
{4c
=3
4b-
8b-
8b-
8b-
8a
8cc
8a
=4
4a
4g
4r}
{4c
=5
4cc
8cc
8cc
4cc
8b-
8b-
=6
2a
8cc
8b-}
{8a
8g
=7
4f
8f
8f
8a
8g
4g
=8
2f}
{4g
4b-
=9
4a
8a
8a
8cc
8b-
8a
8g
=10
2f
4r}
==
!!!AGN: Barbara
!! Variante bekannt
!!!ONB: ESAC (Essen Associative Code) Database: TEST
!!!AMT: simple quadruple
!!!AIN: vox
!!!EED: Helmut Schaffrath
!!!EEV: 1.0
*-
